common/assets/images/icon-theme-dark.svg

<svg height="64" viewBox="0 0 64 64" width="64" xmlns="http://www.w3.org/2000/svg"><path d="m32 62c-16.5685425 0-30-13.4314575-30-30s13.4314575-30 30-30 30 13.4314575 30 30-13.4314575 30-30 30zm2.0305046-54.04077148c-5.5435067.13531528-10.4979724 1.81310533-14.8633969 5.03337018-6.5481367 4.8303972-9.43117321 11.5637478-9.51608755 20.0074013-.08055692 8.010364 3.41614765 14.3752487 9.51608755 19.0795127 4.0666267 3.1361761 9.0210923 4.7915902 14.8633969 4.9662424-8.2192383-8.8740645-12.3288574-17.5162693-12.3288574-25.9266145 0-8.4103451 4.1096191-16.1303158 12.3288574-23.15991208z" fill-rule="evenodd"/></svg>

<?xml version="1.0" encoding="UTF-8"?>
<svg width="64px" height="64px" viewBox="0 0 64 64" version="1.1" xmlns="http://www.w3.org/2000/svg" xmlns:xlink="http://www.w3.org/1999/xlink">
    <!-- Generator: Sketch 49.3 (51167) - http://www.bohemiancoding.com/sketch -->
    <title>Artboard</title>
    <desc>Created with Sketch.</desc>
    <defs></defs>
    <g id="Artboard" stroke="none" stroke-width="1" fill="none" fill-rule="evenodd">
        <path d="M32,62 C15.4314575,62 2,48.5685425 2,32 C2,15.4314575 15.4314575,2 32,2 C48.5685425,2 62,15.4314575 62,32 C62,48.5685425 48.5685425,62 32,62 Z M34.0305046,7.95922852 C28.4869979,8.0945438 23.5325322,9.77233385 19.1671077,12.9925987 C12.618971,17.8229959 9.73593449,24.5563465 9.65102015,33 C9.57046323,41.010364 13.0671678,47.3752487 19.1671077,52.0795127 C23.2337344,55.2156888 28.1882,56.8711029 34.0305046,57.0457551 C25.8112663,48.1716906 21.7016472,39.5294858 21.7016472,31.1191406 C21.7016472,22.7087955 25.8112663,14.9888248 34.0305046,7.95922852 Z" id="Combined-Shape" fill="#000000"></path>
    </g>
</svg>
